Newaita/actions/16/kdenlive-align-left.svg

<svg height="16" viewBox="0 0 16 16" width="16" xmlns="http://www.w3.org/2000/svg"><g fill="#424242"><path d="m3.308594 2.769531h.660156c.183594 0 .332031.148438.332031.332031v9.921876c0 .183593-.148437.332031-.332031.332031h-.660156c-.183594 0-.332032-.148438-.332032-.332031v-9.921876c0-.183593.148438-.332031.332032-.332031zm0 0"/><path d="m12.238281 8.726562h-5.953125c-.367187 0-.664062-.296874-.664062-.664062 0-.363281.296875-.660156.664062-.660156h5.953125c.363281 0 .660157.296875.660157.660156 0 .367188-.296876.664062-.660157.664062zm0 0"/><path d="m11.429688 3.851562-4.675782 4.679688c-.261718.257812-.679687.257812-.9375 0-.257812-.257812-.257812-.679688 0-.9375l4.679688-4.675781c.257812-.257813.675781-.257813.933594 0 .257812.257812.257812.675781 0 .933593zm0 0"/><path d="m10.496094 13.210938-4.679688-4.679688c-.257812-.257812-.257812-.675781 0-.933594.257813-.261718.675782-.261718.9375 0l4.675782 4.675782c.257812.257812.257812.675781 0 .9375-.257813.257812-.675782.257812-.933594 0zm0 0"/></g></svg>

<svg xmlns="http://www.w3.org/2000/svg" xmlns:xlink="http://www.w3.org/1999/xlink" width="16px" height="16px" viewBox="0 0 16 16" version="1.1">
<g id="surface1">
     <defs>
  <style id="current-color-scheme" type="text/css">
   .ColorScheme-Text { color:#424242; } .ColorScheme-Highlight { color:#eeeeee; }
  </style>
 </defs>
<path style="fill:currentColor" class="ColorScheme-Text" d="M 3.308594 2.769531 L 3.96875 2.769531 C 4.152344 2.769531 4.300781 2.917969 4.300781 3.101562 L 4.300781 13.023438 C 4.300781 13.207031 4.152344 13.355469 3.96875 13.355469 L 3.308594 13.355469 C 3.125 13.355469 2.976562 13.207031 2.976562 13.023438 L 2.976562 3.101562 C 2.976562 2.917969 3.125 2.769531 3.308594 2.769531 Z M 3.308594 2.769531 "/>
     <defs>
  <style id="current-color-scheme" type="text/css">
   .ColorScheme-Text { color:#424242; } .ColorScheme-Highlight { color:#eeeeee; }
  </style>
 </defs>
<path style="fill:currentColor" class="ColorScheme-Text" d="M 12.238281 8.726562 L 6.285156 8.726562 C 5.917969 8.726562 5.621094 8.429688 5.621094 8.0625 C 5.621094 7.699219 5.917969 7.402344 6.285156 7.402344 L 12.238281 7.402344 C 12.601562 7.402344 12.898438 7.699219 12.898438 8.0625 C 12.898438 8.429688 12.601562 8.726562 12.238281 8.726562 Z M 12.238281 8.726562 "/>
     <defs>
  <style id="current-color-scheme" type="text/css">
   .ColorScheme-Text { color:#424242; } .ColorScheme-Highlight { color:#eeeeee; }
  </style>
 </defs>
<path style="fill:currentColor" class="ColorScheme-Text" d="M 11.429688 3.851562 L 6.753906 8.53125 C 6.492188 8.789062 6.074219 8.789062 5.816406 8.53125 C 5.558594 8.273438 5.558594 7.851562 5.816406 7.59375 L 10.496094 2.917969 C 10.753906 2.660156 11.171875 2.660156 11.429688 2.917969 C 11.6875 3.175781 11.6875 3.59375 11.429688 3.851562 Z M 11.429688 3.851562 "/>
     <defs>
  <style id="current-color-scheme" type="text/css">
   .ColorScheme-Text { color:#424242; } .ColorScheme-Highlight { color:#eeeeee; }
  </style>
 </defs>
<path style="fill:currentColor" class="ColorScheme-Text" d="M 10.496094 13.210938 L 5.816406 8.53125 C 5.558594 8.273438 5.558594 7.855469 5.816406 7.597656 C 6.074219 7.335938 6.492188 7.335938 6.753906 7.597656 L 11.429688 12.273438 C 11.6875 12.53125 11.6875 12.949219 11.429688 13.210938 C 11.171875 13.46875 10.753906 13.46875 10.496094 13.210938 Z M 10.496094 13.210938 "/>
</g>
</svg>
